optimized/24/outline/hand-thumb-up.svg

<svg xmlns="http://www.w3.org/2000/svg" fill="none" viewBox="0 0 24 24">
  <path stroke-linecap="round" stroke-linejoin="round" d="M6.63257 10.5C7.43892 10.5 8.16648 10.0542 8.6641 9.41967C9.43726 8.43384 10.4117 7.6134 11.5255 7.02021C12.2477 6.63563 12.8743 6.06428 13.1781 5.30464C13.3908 4.7731 13.5 4.20587 13.5 3.63338V3C13.5 2.58579 13.8358 2.25 14.25 2.25C15.4926 2.25 16.5 3.25736 16.5 4.5C16.5 5.65163 16.2404 6.74263 15.7766 7.71771C15.511 8.27604 15.8836 9 16.5019 9H19.6277C20.6544 9 21.5733 9.69399 21.682 10.7149C21.7269 11.1371 21.75 11.5658 21.75 12C21.75 14.8476 20.7581 17.4636 19.101 19.5212C18.7134 20.0025 18.1142 20.25 17.4962 20.25H13.4802C12.9966 20.25 12.5161 20.172 12.0572 20.0191L8.94278 18.9809C8.48393 18.828 8.00342 18.75 7.51975 18.75H5.90421M14.25 9H16.5M5.90421 18.75C5.98702 18.9546 6.07713 19.1554 6.17423 19.3522C6.37137 19.7517 6.0962 20.25 5.65067 20.25H4.74289C3.85418 20.25 3.02991 19.732 2.77056 18.882C2.43208 17.7726 2.25 16.5951 2.25 15.375C2.25 13.8225 2.54481 12.3389 3.08149 10.9771C3.38655 10.203 4.16733 9.75 4.99936 9.75H6.05212C6.52404 9.75 6.7973 10.3059 6.5523 10.7093C5.72588 12.0698 5.25 13.6668 5.25 15.375C5.25 16.5685 5.48232 17.7078 5.90421 18.75Z"/>
</svg>

<svg xmlns="http://www.w3.org/2000/svg" fill="none" viewBox="0 0 24 24" stroke-width="1.5" stroke="currentColor" aria-hidden="true">
  <path stroke-linecap="round" stroke-linejoin="round" d="M6.633 10.5c.806 0 1.533-.446 2.031-1.08a9.041 9.041 0 012.861-2.4c.723-.384 1.35-.956 1.653-1.715a4.498 4.498 0 00.322-1.672V3a.75.75 0 01.75-.75A2.25 2.25 0 0116.5 4.5c0 1.152-.26 2.243-.723 3.218-.266.558.107 1.282.725 1.282h3.126c1.026 0 1.945.694 2.054 1.715.045.422.068.85.068 1.285a11.95 11.95 0 01-2.649 7.521c-.388.482-.987.729-1.605.729H13.48c-.483 0-.964-.078-1.423-.23l-3.114-1.04a4.501 4.501 0 00-1.423-.23H5.904M14.25 9h2.25M5.904 18.75c.083.205.173.405.27.602.197.4-.078.898-.523.898h-.908c-.889 0-1.713-.518-1.972-1.368a12 12 0 01-.521-3.507c0-1.553.295-3.036.831-4.398C3.387 10.203 4.167 9.75 5 9.75h1.053c.472 0 .745.556.5.96a8.958 8.958 0 00-1.302 4.665c0 1.194.232 2.333.654 3.375z"/>
</svg>
